build/img/header-logo-2-tablet.svg

<svg width="102" height="20" viewBox="0 0 102 20" fill="none" xmlns="http://www.w3.org/2000/svg">
<path d="M1.78992 17.4945C0.902539 16.1681 0.478241 14.5814 0.583977 12.9848V6.46795C0.472038 4.85958 0.889922 3.25895 1.77269 1.91483C2.5709 0.877922 3.93477 0.362366 5.86427 0.368159C7.79377 0.373952 9.10021 0.828685 9.78358 1.73236C10.6168 2.85221 11.0234 4.23682 10.9292 5.63379V7.16309H7.36308V5.50346C7.35827 5.06678 7.32084 4.63108 7.2511 4.20008C7.20799 3.88807 7.06596 3.59849 6.84625 3.37461C6.71061 3.25728 6.55315 3.16841 6.38306 3.11321C6.21297 3.05801 6.03367 3.03757 5.85565 3.05311C5.6 3.01462 5.3388 3.05654 5.10761 3.17315C4.87641 3.28976 4.68645 3.47539 4.56357 3.7048C4.33709 4.31502 4.2374 4.9657 4.27071 5.61642V13.8885C4.23141 14.5435 4.34653 15.1986 4.60665 15.8001C4.73093 16.0171 4.91535 16.1927 5.13724 16.3054C5.35914 16.4181 5.60884 16.463 5.85565 16.4344C6.09818 16.469 6.34535 16.4255 6.5619 16.31C6.77846 16.1946 6.95333 16.0131 7.06159 15.7914C7.26996 15.1801 7.36059 14.5342 7.32862 13.8885V12.1507H10.8948V13.6539C10.9997 15.0715 10.6263 16.4832 9.83526 17.6596C9.07724 18.6154 7.76793 19.0846 5.90734 19.0846C4.04675 19.0846 2.59101 18.5633 1.78992 17.4945Z" fill="#111111"/>
<path d="M15.788 0.62014H19.871L23.3166 18.8674H19.9227L19.3111 14.8356H16.4513L15.7622 18.8413H12.3167L15.788 0.62014ZM18.9321 12.5417L17.8468 5.20802L16.77 12.5417H18.9321Z" fill="#111111"/>
<path d="M25.9615 3.36592H23.1707V0.62014H32.4047V3.36592H29.6483V18.8413H25.9529L25.9615 3.36592Z" fill="#111111"/>
<path d="M39.6498 0.62014H46.6528V2.51438H42.1736V8.53597H45.8087V10.3346H42.1736V17.0166H46.6959V18.8413H39.6498V0.62014Z" fill="#444444"/>
<path d="M48.7292 0.62014H50.452L55.6203 12.7241V0.62014H57.7221V18.8674H56.1113L50.943 6.4245V18.8413H48.8068L48.7292 0.62014Z" fill="#444444"/>
<path d="M60.505 0.62014H67.4995V2.51438H63.0203V8.53597H66.6898V10.3346H63.0547V17.0166H67.5511V18.8413H60.505V0.62014Z" fill="#444444"/>
<path d="M69.5758 0.620143H73.2108C74.6434 0.503862 76.0699 0.907537 77.2335 1.75842C78.0949 2.51438 78.517 3.74824 78.517 5.46001C78.517 7.77712 77.7733 9.19345 76.286 9.70901L78.8701 18.8413H76.4238L74.055 10.2912H72.0997V18.8413H69.5758V0.620143ZM73.0213 8.44039C73.8512 8.52138 74.681 8.28577 75.3471 7.78002C75.6178 7.45685 75.8201 7.08124 75.9416 6.67629C76.063 6.27133 76.1011 5.8456 76.0534 5.42525C76.0707 4.83574 75.9862 4.24769 75.8036 3.68742C75.7295 3.48083 75.6152 3.29133 75.4672 3.13014C75.3192 2.96895 75.1407 2.83934 74.9422 2.74899C74.383 2.51756 73.78 2.41371 73.1764 2.44487H72.0652V8.47515L73.0213 8.44039Z" fill="#444444"/>
<path d="M81.9114 17.4945C81.0881 16.0926 80.7065 14.4714 80.8175 12.8458V6.76338C80.7878 5.58961 80.933 4.418 81.2481 3.28772C81.4969 2.43796 82.0257 1.69925 82.747 1.19363C83.6178 0.664235 84.6259 0.410019 85.6412 0.463736C86.298 0.40073 86.9605 0.48317 87.5824 0.705295C88.2043 0.92742 88.7707 1.28387 89.2418 1.74973C90.0683 2.91759 90.4588 4.34258 90.3444 5.77282V6.45057H87.9756V5.88578C87.9917 5.21025 87.9398 4.53482 87.8205 3.86989C87.7421 3.44375 87.5086 3.06256 87.1659 2.80112C86.7187 2.53492 86.2024 2.41078 85.6843 2.44487C85.1216 2.39631 84.5624 2.57086 84.1252 2.93146C83.7679 3.27339 83.5345 3.72611 83.4619 4.21746C83.3528 4.93321 83.3038 5.65698 83.3155 6.38106V13.1499C83.2471 14.1785 83.4213 15.2088 83.8237 16.1564C84.0574 16.4478 84.3541 16.6814 84.6911 16.8395C85.028 16.9975 85.3964 17.0757 85.7679 17.0682C86.1394 17.0606 86.5043 16.9675 86.8347 16.7959C87.1651 16.6243 87.4522 16.3788 87.6741 16.0782C88.0892 15.076 88.269 13.9905 88.1995 12.9066V11.6206H85.9083V9.82197H90.4736V18.8413H88.9145L88.6647 16.7472C88.4673 17.4429 88.0423 18.0508 87.459 18.472C86.8757 18.8933 86.1682 19.103 85.4517 19.0672C84.778 19.1272 84.1003 19.0144 83.4814 18.7395C82.8624 18.4645 82.3224 18.0363 81.9114 17.4945Z" fill="#444444"/>
<path d="M95.7113 12.4113L91.8093 0.62014H94.1522L96.9173 9.41358L99.6393 0.62014H102.008L98.1318 12.4113V18.8413H95.72L95.7113 12.4113Z" fill="#444444"/>
</svg>

<svg width="102" height="20" fill="none" xmlns="http://www.w3.org/2000/svg"><path d="M1.79 17.494a7.25 7.25 0 01-1.206-4.51V6.469a7.365 7.365 0 011.189-4.553C2.57.878 3.935.362 5.864.368c1.93.006 3.236.46 3.92 1.364a5.875 5.875 0 011.145 3.902v1.53H7.363v-1.66A8.764 8.764 0 007.251 4.2a1.465 1.465 0 00-.405-.825 1.34 1.34 0 00-.99-.322 1.248 1.248 0 00-1.292.652 4.79 4.79 0 00-.293 1.911v8.273c-.04.655.076 1.31.336 1.911a1.265 1.265 0 001.249.634 1.154 1.154 0 001.206-.643 5.115 5.115 0 00.267-1.902V12.15h3.566v1.503a6.342 6.342 0 01-1.06 4.006c-.758.955-2.067 1.425-3.928 1.425-1.86 0-3.316-.522-4.117-1.59zM15.788.62h4.083l3.446 18.247h-3.394l-.612-4.031h-2.86l-.689 4.005h-3.445L15.788.621zm3.144 11.922l-1.085-7.334-1.077 7.334h2.162zm7.03-9.176H23.17V.62h9.234v2.746h-2.757V18.84h-3.695l.009-15.475z" fill="#111"/><path d="M39.65.62h7.003v1.894h-4.48v6.022h3.636v1.799h-3.635v6.682h4.522v1.824H39.65V.621zm9.08 0h1.722l5.168 12.104V.62h2.102v18.247h-1.61l-5.17-12.443v12.417h-2.136L48.729.621zm11.775 0h6.994v1.894H63.02v6.022h3.67v1.799h-3.635v6.682h4.496v1.824h-7.046V.621zm9.071 0h3.635a5.992 5.992 0 014.023 1.138c.86.756 1.283 1.99 1.283 3.702 0 2.317-.744 3.733-2.231 4.249l2.584 9.132h-2.446l-2.369-8.55H72.1v8.55h-2.524V.621zm3.445 7.82c.83.081 1.66-.154 2.326-.66a3.111 3.111 0 00.706-2.355 5.124 5.124 0 00-.25-1.738 1.645 1.645 0 00-.86-.938 4.068 4.068 0 00-1.767-.304h-1.11v6.03l.955-.035zm8.89 9.054a8.093 8.093 0 01-1.094-4.648V6.763a11.83 11.83 0 01.431-3.475 3.892 3.892 0 011.499-2.094 5.056 5.056 0 012.894-.73c.657-.063 1.32.02 1.941.241a4.525 4.525 0 011.66 1.045 6.121 6.121 0 011.102 4.023v.678h-2.368v-.565a10.058 10.058 0 00-.156-2.016 1.74 1.74 0 00-.654-1.069 2.566 2.566 0 00-1.482-.356 2.158 2.158 0 00-1.559.486c-.357.342-.59.795-.663 1.286-.11.716-.158 1.44-.147 2.164v6.769a6.577 6.577 0 00.509 3.006 2.441 2.441 0 001.944.912 2.422 2.422 0 001.906-.99 7.102 7.102 0 00.525-3.171V11.62h-2.29V9.822h4.565v9.02h-1.56l-.25-2.095a3.206 3.206 0 01-1.205 1.725 3.158 3.158 0 01-2.007.595 3.982 3.982 0 01-1.97-.328 4.02 4.02 0 01-1.57-1.245zm13.8-5.083L91.81.621h2.343l2.765 8.793L99.64.62h2.369l-3.876 11.791v6.43H95.72l-.009-6.43z" fill="#444"/></svg>
